X: 3399
T: BEGONE DULL CARE
%R: air, jig
B: James Kerr "Merry Melodies" v.3 p.44 #399
Z: 2016 John Chambers <jc:trillian.mit.edu>
M: 6/8
L: 1/8
K: D
uA |\
d3 e3 | f3 f2g | aba agf | f3 e2A |\
d3 e3 | f3 a2g | fgf ede | d3- d2 ::\
f |\
a2a agf | g2g g2e | fga agf | f3 e2A |\
d3 e3 | f2g a2g | fgf ede | d3- d2 :|

%%sep 1 1 500
%%sep 1 1 500

